;FLAVOR:Marlin
;TIME:7486
;Filament used: 6.69323m
;Layer height: 0.15
;MINX:66.6
;MINY:66.6
;MINZ:0.3
;MAXX:158.4
;MAXY:158.4
;MAXZ:9.45
;Generated with Cura_SteamEngine 4.8
M140 S80
M105
M190 S80
M104 S230
M105
M109 S230
M82 ;absolute extrusion mode
G92 E0 ;Reset Extruder
G1 Z2.0 F3000 ;Move Z Axis up
G1 X10.1 Y20 Z0.28 F5000.0 ;Move to start position
G1 X10.1 Y200.0 Z0.28 F1500.0 E15 ;Draw the first line
G1 X10.4 Y200.0 Z0.28 F5000.0 ;Move to side a little
G1 X10.4 Y20 Z0.28 F1500.0 E30 ;Draw the second line
G92 E0 ;Reset Extruder
G1 Z2.0 F3000 ;Move Z Axis up
G92 E0
G92 E0
G1 F1500 E-6.5
;LAYER_COUNT:62
;LAYER:0
M107
G0 F3600 X68.885 Y69.002 Z0.3
;TYPE:SKIRT
G1 F1500 E0
G1 F1800 X69.002 Y68.885 E0.00825
G1 X69.588 Y68.355 E0.04767
G1 X70.224 Y67.888 E0.08704
G1 X70.904 Y67.487 E0.12642
G1 X71.622 Y67.157 E0.16585
G1 X72.369 Y66.902 E0.20523
G1 X73.138 Y66.723 E0.24462
G1 X73.922 Y66.623 E0.28405
G1 X74.517 Y66.6 E0.31376
G1 X150.483 Y66.6 E4.10372
G1 X151.272 Y66.64 E4.14313
G1 X152.052 Y66.759 E4.18249
G1 X152.817 Y66.957 E4.22192
G1 X153.557 Y67.231 E4.26129
G1 X154.266 Y67.579 E4.30069
G1 X154.937 Y67.997 E4.34013
G1 X155.561 Y68.48 E4.3795
G1 X155.998 Y68.885 E4.40922
G1 X156.115 Y69.002 E4.41748
G1 X156.645 Y69.588 E4.4569
G1 X157.112 Y70.224 E4.49626
G1 X157.513 Y70.904 E4.53565
G1 X157.843 Y71.622 E4.57507
G1 X158.098 Y72.369 E4.61445
G1 X158.277 Y73.138 E4.65384
G1 X158.377 Y73.922 E4.69327
G1 X158.4 Y74.517 E4.72298
G1 X158.4 Y150.483 E8.51294
G1 X158.36 Y151.272 E8.55235
G1 X158.241 Y152.052 E8.59172
G1 X158.043 Y152.817 E8.63114
G1 X157.769 Y153.557 E8.67051
G1 X157.421 Y154.266 E8.70991
G1 X157.003 Y154.937 E8.74935
G1 X156.52 Y155.561 E8.78872
G1 X156.115 Y155.998 E8.81845
G1 X155.998 Y156.115 E8.8267
G1 X155.412 Y156.645 E8.86612
G1 X154.776 Y157.112 E8.90549
G1 X154.096 Y157.513 E8.94487
G1 X153.378 Y157.843 E8.98429
G1 X152.631 Y158.098 E9.02367
G1 X151.862 Y158.277 E9.06307
G1 X151.078 Y158.377 E9.1025
G1 X150.483 Y158.4 E9.1322
G1 X74.517 Y158.4 E12.92216
G1 X73.728 Y158.36 E12.96158
G1 X72.948 Y158.241 E13.00094
G1 X72.183 Y158.043 E13.04036
G1 X71.443 Y157.769 E13.07973
G1 X70.734 Y157.421 E13.11914
G1 X70.063 Y157.003 E13.15858
G1 X69.439 Y156.52 E13.19794
G1 X69.002 Y156.115 E13.22767
G1 X68.885 Y155.998 E13.23592
G1 X68.355 Y155.412 E13.27534
G1 X67.888 Y154.776 E13.31471
G1 X67.487 Y154.096 E13.35409
G1 X67.157 Y153.378 E13.39352
G1 X66.902 Y152.631 E13.4329
G1 X66.723 Y151.862 E13.47229
G1 X66.623 Y151.078 E13.51172
G1 X66.6 Y150.483 E13.54143
G1 X66.6 Y74.517 E17.33139
G1 X66.64 Y73.728 E17.3708
G1 X66.759 Y72.948 E17.41016
G1 X66.957 Y72.183 E17.44959
G1 X67.231 Y71.443 E17.48896
G1 X67.579 Y70.734 E17.52836
G1 X67.997 Y70.063 E17.5678
G1 X68.48 Y69.439 E17.60717
G1 X68.885 Y69.002 E17.63689
G0 F3600 X69.284 Y69.167
G1 F1800 X69.856 Y68.653 E17.67526
G1 X70.478 Y68.2 E17.71365
G1 X71.143 Y67.814 E17.75201
G1 X71.845 Y67.499 E17.7904
G1 X72.576 Y67.259 E17.82878
G1 X73.327 Y67.096 E17.86712
G1 X74.092 Y67.012 E17.90552
G1 X74.517 Y67 E17.92673
G1 X150.483 Y67 E21.71669
G1 X151.251 Y67.04 E21.75506
G1 X152.011 Y67.159 E21.79343
G1 X152.754 Y67.357 E21.8318
G1 X153.473 Y67.631 E21.87018
G1 X154.159 Y67.978 E21.90854
G1 X154.806 Y68.394 E21.94691
G1 X155.406 Y68.875 E21.98528
G1 X155.833 Y69.284 E22.01478
G1 X156.347 Y69.856 E22.05314
G1 X156.8 Y70.478 E22.09153
G1 X157.186 Y71.143 E22.12989
G1 X157.501 Y71.845 E22.16828
G1 X157.741 Y72.576 E22.20667
G1 X157.904 Y73.327 E22.24501
G1 X157.988 Y74.092 E22.2834
G1 X158 Y74.517 E22.30461
G1 X158 Y150.483 E26.09457
G1 X157.96 Y151.251 E26.13294
G1 X157.841 Y152.011 E26.17132
G1 X157.643 Y152.754 E26.20968
G1 X157.369 Y153.473 E26.24807
G1 X157.022 Y154.159 E26.28642
G1 X156.606 Y154.806 E26.3248
G1 X156.125 Y155.406 E26.36316
G1 X155.716 Y155.833 E26.39266
G1 X155.144 Y156.347 E26.43103
G1 X154.522 Y156.8 E26.46942
G1 X153.857 Y157.186 E26.50778
G1 X153.155 Y157.501 E26.54617
G1 X152.424 Y157.741 E26.58455
G1 X151.673 Y157.904 E26.62289
G1 X150.908 Y157.988 E26.66129
G1 X150.483 Y158 E26.6825
G1 X74.517 Y158 E30.47246
G1 X73.749 Y157.96 E30.51083
G1 X72.989 Y157.841 E30.5492
G1 X72.246 Y157.643 E30.58757
G1 X71.527 Y157.369 E30.62595
G1 X70.841 Y157.022 E30.66431
G1 X70.194 Y156.606 E30.70268
G1 X69.594 Y156.125 E30.74105
G1 X69.167 Y155.716 E30.77055
G1 X68.653 Y155.144 E30.80891
G1 X68.2 Y154.522 E30.8473
G1 X67.814 Y153.857 E30.88566
G1 X67.499 Y153.155 E30.92405
G1 X67.259 Y152.424 E30.96244
G1 X67.096 Y151.673 E31.00078
G1 X67.012 Y150.908 E31.03917
G1 X67 Y150.483 E31.06038
G1 X67 Y74.517 E34.85034
G1 X67.04 Y73.749 E34.88871
G1 X67.159 Y72.989 E34.92709
G1 X67.357 Y72.246 E34.96545
G1 X67.631 Y71.527 E35.00384
G1 X67.978 Y70.841 E35.04219
G1 X68.394 Y70.194 E35.08057
G1 X68.875 Y69.594 E35.11893
G1 X69.284 Y69.167 E35.14843
G0 F3600 X69.45 Y69.567
G1 F1800 X69.567 Y69.45 E35.15669
G1 X70.124 Y68.95 E35.19403
G1 X70.73 Y68.513 E35.2313
G1 X71.38 Y68.142 E35.26864
G1 X72.066 Y67.843 E35.30598
G1 X72.78 Y67.619 E35.34331
G1 X73.513 Y67.472 E35.38061
G1 X74.517 Y67.4 E35.43083
G1 X150.483 Y67.4 E39.22079
G1 X151.23 Y67.44 E39.25811
G1 X151.968 Y67.559 E39.2954
G1 X152.69 Y67.757 E39.33275
G1 X153.386 Y68.03 E39.37005
G1 X154.049 Y68.377 E39.40739
G1 X154.672 Y68.792 E39.44473
G1 X155.433 Y69.45 E39.49492
G1 X155.55 Y69.567 E39.50318
G1 X156.05 Y70.124 E39.54052
G1 X156.487 Y70.73 E39.57779
G1 X156.858 Y71.38 E39.61513
G1 X157.157 Y72.066 E39.65247
G1 X157.381 Y72.78 E39.6898
G1 X157.528 Y73.513 E39.7271
G1 X157.6 Y74.517 E39.77732
G1 X157.6 Y150.483 E43.56728
G1 X157.56 Y151.23 E43.6046
G1 X157.441 Y151.968 E43.64189
G1 X157.243 Y152.69 E43.67924
G1 X156.97 Y153.386 E43.71654
G1 X156.623 Y154.049 E43.75388
G1 X156.208 Y154.672 E43.79122
G1 X155.55 Y155.433 E43.84141
G1 X155.433 Y155.55 E43.84967
G1 X154.876 Y156.05 E43.88701
G1 X154.27 Y156.487 E43.92429
G1 X153.62 Y156.858 E43.96162
G1 X152.934 Y157.157 E43.99896
G1 X152.22 Y157.381 E44.03629
G1 X151.487 Y157.528 E44.07359
G1 X150.483 Y157.6 E44.12381
G1 X74.517 Y157.6 E47.91377
G1 X73.77 Y157.56 E47.95109
G1 X73.032 Y157.441 E47.98838
G1 X72.31 Y157.243 E48.02573
G1 X71.614 Y156.97 E48.06303
G1 X70.951 Y156.623 E48.10037
G1 X70.328 Y156.208 E48.13771
G1 X69.567 Y155.55 E48.1879
G1 X69.45 Y155.433 E48.19616
G1 X68.95 Y154.876 E48.2335
G1 X68.513 Y154.27 E48.27078
G1 X68.142 Y153.62 E48.30812
G1 X67.843 Y152.934 E48.34545
G1 X67.619 Y152.22 E48.38278
G1 X67.472 Y151.487 E48.42008
G1 X67.4 Y150.483 E48.4703
G1 X67.4 Y74.517 E52.26026
G1 X67.44 Y73.77 E52.29758
G1 X67.559 Y73.032 E52.33487
G1 X67.757 Y72.31 E52.37223
G1 X68.03 Y71.614 E52.40952
G1 X68.377 Y70.951 E52.44686
G1 X68.792 Y70.328 E52.4842
G1 X69.45 Y69.567 E52.53439
G0 F3600 X69.733 Y69.85
G1 F1800 X69.85 Y69.733 E52.54265
G1 X70.391 Y69.249 E52.57887
G1 X70.982 Y68.826 E52.61512
G1 X71.616 Y68.472 E52.65135
G1 X72.285 Y68.189 E52.68759
G1 X72.981 Y67.981 E52.72383
G1 X73.696 Y67.851 E52.76009
G1 X74.517 Y67.8 E52.80113
G1 X150.483 Y67.8 E56.59109
G1 X151.208 Y67.84 E56.62731
G1 X151.925 Y67.959 E56.66357
G1 X152.624 Y68.157 E56.69982
G1 X153.297 Y68.43 E56.73605
G1 X153.936 Y68.775 E56.77228
G1 X154.533 Y69.189 E56.80853
G1 X155.15 Y69.733 E56.84956
G1 X155.267 Y69.85 E56.85782
G1 X155.751 Y70.391 E56.89404
G1 X156.174 Y70.982 E56.93029
G1 X156.528 Y71.616 E56.96652
G1 X156.811 Y72.285 E57.00276
G1 X157.019 Y72.981 E57.039
G1 X157.149 Y73.696 E57.07526
G1 X157.2 Y74.517 E57.1163
G1 X157.2 Y150.483 E60.90626
G1 X157.16 Y151.208 E60.94248
G1 X157.041 Y151.925 E60.97874
G1 X156.843 Y152.624 E61.01499
G1 X156.57 Y153.297 E61.05122
G1 X156.225 Y153.936 E61.08745
G1 X155.811 Y154.533 E61.1237
G1 X155.267 Y155.15 E61.16473
G1 X155.15 Y155.267 E61.17299
G1 X154.609 Y155.751 E61.20921
G1 X154.018 Y156.174 E61.24546
G1 X153.384 Y156.528 E61.28169
G1 X152.715 Y156.811 E61.31793
G1 X152.019 Y157.019 E61.35417
G1 X151.304 Y157.149 E61.39043
G1 X150.483 Y157.2 E61.43147
G1 X74.517 Y157.2 E65.22143
G1 X73.792 Y157.16 E65.25765
G1 X73.075 Y157.041 E65.29391
G1 X72.376 Y156.843 E65.33016
G1 X71.703 Y156.57 E65.36639
G1 X71.064 Y156.225 E65.40262
G1 X70.467 Y155.811 E65.43887
G1 X69.85 Y155.267 E65.4799
G1 X69.733 Y155.15 E65.48816
G1 X69.249 Y154.609 E65.52438
G1 X68.826 Y154.018 E65.56063
G1 X68.472 Y153.384 E65.59686
G1 X68.189 Y152.715 E65.6331
G1 X67.981 Y152.019 E65.66934
G1 X67.851 Y151.304 E65.7056
G1 X67.8 Y150.483 E65.74664
G1 X67.8 Y74.517 E69.5366
G1 X67.84 Y73.792 E69.57282
G1 X67.959 Y73.075 E69.60908
G1 X68.157 Y72.376 E69.64533
G1 X68.43 Y71.703 E69.68156
G1 X68.775 Y71.064 E69.71779
G1 X69.189 Y70.467 E69.75404
G1 X69.733 Y69.85 E69.79507
G0 F3600 X70.016 Y70.133
G1 F1800 X70.133 Y70.016 E69.80333
G1 X70.658 Y69.547 E69.83845
G1 X71.233 Y69.141 E69.87357
G1 X71.851 Y68.803 E69.90871
G1 X72.502 Y68.536 E69.94381
G1 X73.18 Y68.346 E69.97894
G1 X73.875 Y68.233 E70.01407
G1 X74.517 Y68.2 E70.04614
G1 X150.483 Y68.2 E73.8361
G1 X151.186 Y68.24 E73.87123
G1 X151.88 Y68.359 E73.90636
G1 X152.555 Y68.557 E73.94146
G1 X153.204 Y68.829 E73.97656
G1 X153.818 Y69.174 E74.0117
G1 X154.389 Y69.585 E74.0468
G1 X154.867 Y70.016 E74.07891
G1 X154.984 Y70.133 E74.08717
G1 X155.453 Y70.658 E74.12229
G1 X155.859 Y71.233 E74.15741
G1 X156.197 Y71.851 E74.19255
G1 X156.464 Y72.502 E74.22765
G1 X156.654 Y73.18 E74.26278
G1 X156.767 Y73.875 E74.29791
G1 X156.8 Y74.517 E74.32998
G1 X156.8 Y150.483 E78.11994
G1 X156.76 Y151.186 E78.15507
G1 X156.641 Y151.88 E78.1902
G1 X156.443 Y152.555 E78.22529
G1 X156.171 Y153.204 E78.2604
G1 X155.826 Y153.818 E78.29554
G1 X155.415 Y154.389 E78.33064
G1 X154.984 Y154.867 E78.36275
G1 X154.867 Y154.984 E78.371
G1 X154.342 Y155.453 E78.40612
G1 X153.767 Y155.859 E78.44124
G1 X153.149 Y156.197 E78.47638
G1 X152.498 Y156.464 E78.51149
G1 X151.82 Y156.654 E78.54662
G1 X151.125 Y156.767 E78.58175
G1 X150.483 Y156.8 E78.61382
G1 X74.517 Y156.8 E82.40378
G1 X73.814 Y156.76 E82.43891
G1 X73.12 Y156.641 E82.47404
G1 X72.445 Y156.443 E82.50913
G1 X71.796 Y156.171 E82.54424
G1 X71.182 Y155.826 E82.57937
G1 X70.611 Y155.415 E82.61447
G1 X70.133 Y154.984 E82.64658
G1 X70.016 Y154.867 E82.65484
G1 X69.547 Y154.342 E82.68996
G1 X69.141 Y153.767 E82.72508
G1 X68.803 Y153.149 E82.76022
G1 X68.536 Y152.498 E82.79532
G1 X68.346 Y151.82 E82.83045
G1 X68.233 Y151.125 E82.86558
G1 X68.2 Y150.483 E82.89765
G1 X68.2 Y74.517 E86.68761
G1 X68.24 Y73.814 E86.72274
G1 X68.359 Y73.12 E86.75787
G1 X68.557 Y72.445 E86.79297
G1 X68.829 Y71.796 E86.82807
G1 X69.174 Y71.182 E86.86321
G1 X69.585 Y70.611 E86.89831
G1 X70.016 Y70.133 E86.93042
G0 F3600 X70.416 Y70.299
G1 F1800 X70.925 Y69.846 E86.96442
G1 X71.483 Y69.457 E86.99835
G1 X72.083 Y69.135 E87.03232
G1 X72.717 Y68.886 E87.06631
G1 X73.376 Y68.713 E87.1003
G1 X74.05 Y68.619 E87.13425
G1 X74.517 Y68.6 E87.15757
G1 X150.483 Y68.6 E90.94753
G1 X151.163 Y68.64 E90.98151
G1 X151.833 Y68.759 E91.01546
G1 X152.485 Y68.956 E91.04944
G1 X153.109 Y69.228 E91.0834
G1 X153.697 Y69.572 E91.11739
G1 X154.241 Y69.982 E91.15137
G1 X154.701 Y70.416 E91.18292
G1 X155.154 Y70.925 E91.21692
G1 X155.543 Y71.483 E91.25086
G1 X155.865 Y72.083 E91.28483
G1 X156.114 Y72.717 E91.31881
G1 X156.287 Y73.376 E91.3528
G1 X156.381 Y74.05 E91.38675
G1 X156.4 Y74.517 E91.41007
G1 X156.4 Y150.483 E95.20003
G1 X156.36 Y151.163 E95.23401
G1 X156.241 Y151.833 E95.26796
G1 X156.044 Y152.485 E95.30194
G1 X155.772 Y153.109 E95.33591
G1 X155.428 Y153.697 E95.36989
G1 X155.018 Y154.241 E95.40388
G1 X154.584 Y154.701 E95.43543
G1 X154.075 Y155.154 E95.46942
G1 X153.517 Y155.543 E95.50336
G1 X152.917 Y155.865 E95.53733
G1 X152.283 Y156.114 E95.57131
G1 X151.624 Y156.287 E95.60531
G1 X150.95 Y156.381 E95.63926
G1 X150.483 Y156.4 E95.66258
G1 X74.517 Y156.4 E99.45253
G1 X73.837 Y156.36 E99.48652
G1 X73.167 Y156.241 E99.52047
G1 X72.515 Y156.044 E99.55445
G1 X71.891 Y155.772 E99.58841
G1 X71.303 Y155.428 E99.6224
G1 X70.759 Y155.018 E99.65638
G1 X70.299 Y154.584 E99.68793
G1 X69.846 Y154.075 E99.72193
G1 X69.457 Y153.517 E99.75586
G1 X69.135 Y152.917 E99.78984
G1 X68.886 Y152.283 E99.82382
G1 X68.713 Y151.624 E99.85781
G1 X68.619 Y150.95 E99.89176
G1 X68.6 Y150.483 E99.91508
G1 X68.6 Y74.517 E103.70504
G1 X68.64 Y73.837 E103.73902
G1 X68.759 Y73.167 E103.77297
G1 X68.956 Y72.515 E103.80695
G1 X69.228 Y71.891 E103.84091
G1 X69.572 Y71.303 E103.8749
G1 X69.982 Y70.759 E103.90889
G1 X70.416 Y70.299 E103.94044
G0 F3600 X70.582 Y70.699
G1 F1800 X70.699 Y70.582 E103.94869
G1 X71.191 Y70.146 E103.98149
G1 X71.732 Y69.774 E104.01425
G1 X72.314 Y69.47 E104.047
G1 X72.929 Y69.239 E104.07978
G1 X73.568 Y69.084 E104.11258
G1 X74.517 Y69 E104.16011
G1 X150.483 Y69 E107.95007
G1 X151.139 Y69.04 E107.98286
G1 X151.785 Y69.159 E108.01563
G1 X152.412 Y69.356 E108.04842
G1 X153.01 Y69.628 E108.0812
G1 X153.571 Y69.97 E108.11398
G1 X154.301 Y70.582 E108.1615
G1 X154.418 Y70.699 E108.16976
G1 X154.854 Y71.191 E108.20255
G1 X155.226 Y71.732 E108.23531
G1 X155.53 Y72.314 E108.26807
G1 X155.761 Y72.929 E108.30084
G1 X155.916 Y73.568 E108.33365
G1 X156 Y74.517 E108.38118
G1 X156 Y150.483 E112.17114
G1 X155.96 Y151.139 E112.20393
G1 X155.841 Y151.785 E112.2367
G1 X155.644 Y152.412 E112.26949
G1 X155.372 Y153.01 E112.30226
G1 X155.03 Y153.571 E112.33504
G1 X154.418 Y154.301 E112.38257
G1 X154.301 Y154.418 E112.39082
G1 X153.809 Y154.854 E112.42362
G1 X153.268 Y155.226 E112.45638
G1 X152.686 Y155.53 E112.48913
G1 X152.071 Y155.761 E112.52191
G1 X151.432 Y155.916 E112.55471
G1 X150.483 Y156 E112.60224
G1 X74.517 Y156 E116.3922
G1 X73.861 Y155.96 E116.42499
G1 X73.215 Y155.841 E116.45776
G1 X72.588 Y155.644 E116.49055
G1 X71.99 Y155.372 E116.52333
G1 X71.429 Y155.03 E116.55611
G1 X70.699 Y154.418 E116.60363
G1 X70.582 Y154.301 E116.61189
G1 X70.146 Y153.809 E116.64469
G1 X69.774 Y153.268 E116.67744
G1 X69.47 Y152.686 E116.7102
G1 X69.239 Y152.071 E116.74298
G1 X69.084 Y151.432 E116.77578
G1 X69 Y150.483 E116.82331
G1 X69 Y74.517 E120.61327
G1 X69.04 Y73.861 E120.64606
G1 X69.159 Y73.215 E120.67883
G1 X69.356 Y72.588 E120.71162
G1 X69.628 Y71.99 E120.74439
G1 X69.97 Y71.429 E120.77717
G1 X70.582 Y70.699 E120.8247
G0 F3600 X70.864 Y70.981
G1 F1800 X70.981 Y70.864 E120.83295
G1 X71.456 Y70.447 E120.86449
G1 X71.979 Y70.092 E120.89602
G1 X72.543 Y69.806 E120.92757
G1 X73.138 Y69.594 E120.95909
G1 X73.756 Y69.458 E120.99065
G1 X74.517 Y69.4 E121.02873
G1 X150.483 Y69.4 E124.81869
G1 X151.114 Y69.44 E124.85023
G1 X151.735 Y69.559 E124.88178
G1 X152.335 Y69.756 E124.91329
G1 X152.907 Y70.027 E124.94486
G1 X153.439 Y70.367 E124.97636
G1 X154.019 Y70.864 E125.01447
G1 X154.136 Y70.981 E125.02273
G1 X154.553 Y71.456 E125.05426
G1 X154.908 Y71.979 E125.0858
G1 X155.194 Y72.543 E125.11734
G1 X155.406 Y73.138 E125.14886
G1 X155.542 Y73.756 E125.18043
G1 X155.6 Y74.517 E125.2185
G1 X155.6 Y150.483 E129.00846
G1 X155.56 Y151.114 E129.04001
G1 X155.441 Y151.735 E129.07155
G1 X155.244 Y152.335 E129.10306
G1 X154.973 Y152.907 E129.13464
G1 X154.633 Y153.439 E129.16614
G1 X154.136 Y154.019 E129.20424
G1 X154.019 Y154.136 E129.2125
G1 X153.544 Y154.553 E129.24403
G1 X153.021 Y154.908 E129.27557
G1 X152.457 Y155.194 E129.30712
G1 X151.862 Y155.406 E129.33863
G1 X151.244 Y155.542 E129.3702
G1 X150.483 Y155.6 E129.40827
G1 X74.517 Y155.6 E133.19823
G1 X73.886 Y155.56 E133.22978
G1 X73.265 Y155.441 E133.26132
G1 X72.665 Y155.244 E133.29283
G1 X72.093 Y154.973 E133.32441
G1 X71.561 Y154.633 E133.35591
G1 X70.981 Y154.136 E133.39401
G1 X70.864 Y154.019 E133.40227
G1 X70.447 Y153.544 E133.4338
G1 X70.092 Y153.021 E133.46534
G1 X69.806 Y152.457 E133.49689
G1 X69.594 Y151.862 E133.5284
G1 X69.458 Y151.244 E133.55997
G1 X69.4 Y150.483 E133.59805
G1 X69.4 Y74.517 E137.38801
G1 X69.44 Y73.886 E137.41955
G1 X69.559 Y73.265 E137.4511
G1 X69.756 Y72.665 E137.4826
G1 X70.027 Y72.093 E137.51418
G1 X70.367 Y71.561 E137.54568
G1 X70.864 Y70.981 E137.58379
G0 F3600 X71.147 Y71.264
G1 F1800 X71.264 Y71.147 E137.59204
G1 X71.72 Y70.748 E137.62227
G1 X72.225 Y70.412 E137.65253
G1 X72.769 Y70.145 E137.68276
G1 X73.344 Y69.952 E137.71302
G1 X73.939 Y69.836 E137.74327
